src/assets/filled/Archive.svg

<svg width="24" height="24" viewBox="0 0 24 24"  xmlns="http://www.w3.org/2000/svg">
<path d="M16.8201 2H7.18007C5.05007 2 3.32007 3.74 3.32007 5.86V19.95C3.32007 21.75 4.61007 22.51 6.19007 21.64L11.0701 18.93C11.5901 18.64 12.4301 18.64 12.9401 18.93L17.8201 21.64C19.4001 22.52 20.6901 21.76 20.6901 19.95V5.86C20.6801 3.74 18.9501 2 16.8201 2ZM15.0101 9.75C14.0401 10.1 13.0201 10.28 12.0001 10.28C10.9801 10.28 9.96007 10.1 8.99007 9.75C8.60007 9.61 8.40007 9.18 8.54007 8.79C8.69007 8.4 9.12007 8.2 9.51007 8.34C11.1201 8.92 12.8901 8.92 14.5001 8.34C14.8901 8.2 15.3201 8.4 15.4601 8.79C15.6001 9.18 15.4001 9.61 15.0101 9.75Z" />
</svg>

<?xml version="1.0" encoding="UTF-8"?>
<svg width="24" height="24" viewBox="0 0 24 24" xmlns="http://www.w3.org/2000/svg">
 <path d="m16.82 2h-9.64c-2.13 0-3.86 1.74-3.86 3.86v14.09c0 1.8 1.29 2.56 2.87 1.69l4.88-2.71c0.52-0.29 1.36-0.29 1.87 0l4.88 2.71c1.58 0.88 2.87 0.12 2.87-1.69v-14.09c-0.01-2.12-1.74-3.86-3.87-3.86zm-1.81 7.75c-0.97 0.35-1.99 0.53-3.01 0.53s-2.04-0.18-3.01-0.53c-0.39-0.14-0.59-0.57-0.45-0.96 0.15-0.39 0.58-0.59 0.97-0.45 1.61 0.58 3.38 0.58 4.99 0 0.39-0.14 0.82 0.06 0.96 0.45s-0.06 0.82-0.45 0.96z"/>
</svg>
